X:1
T:The Boys Of The Lough
M:C
L:1/8
Q:80
C:Arr. by T. Tully
S:Reel
K:HP
[| c|
{g}ec{gcecG}c2e{g}e{A}ef|
"flick"a3e{g}fgaf|
{g}ec{gcecG}c2{g}Ac{gcecG}c2|  !
{g}BABc{gBd}B3{d}c{g}ec{gcecG}c2e{g}e{A}ef|
"flick"a3e{g}fgaf|
{g}ec{gcecG}c2{g}Ac{gcecG}c2|  !
{g}BABc{G}A3|] [|
e|
"flick"a3f{g}ec{gcecG}c2|
e{g}e{A}ef"flick"a3f|  !
{g}ec{gcecG}c2{g}Ac{gcecG}c2|
{g}BABc{gBd}B3{d}c"flick"a3f{g}ec{gcecG}c2|
e{g}e{A}ef"flick"a3f|  !
{g}ec{gcecG}c2{g}Ac{gcecG}c2|
{g}BABc{G}A3|]

